X:1
T:Title
%%score { ( 1 4 ) | ( 2 3 ) }
L:1/8
M:6/8
K:G
V:1 treble nm="Grand Piano"
V:4 treble 
V:2 bass 
V:3 bass 
V:1
 z3 z2[Q:1/4=90] D | D2 [CE] [B,D]2 G | B2 B BA[B,G] | [DFA]2 [DFA] [CFA]G[DFA] | %4
[M:5/8] [DGB]2 [G,DG] [G,CE]2 |[M:1/8] [G,CG] |[M:3/4] [B,D]2 [CE] [B,D]2 G | B2 BB A[B,G] | %8
 [DFA]2 [DFA][CFA] G[FA] |[M:5/8] [GB]2 [FA] G2 |[M:1/8] B |[M:3/4] d2 e d2 B | [FA]2 [FB] G2 E | %13
 D2 G B2 d |[M:5/8] dcB [FA]2 |[M:1/8] [Fc] |[M:3/4] B2 A G2 B |[M:7/8] [Ed]2 [Ec] E3 E | %18
[M:3/4] D2 G[GB] [Gd][GB] |[M:5/8] [FA]2 G G2 |] %20
V:2
 z3 z2 [G,B,] | [G,B,]2 [G,,G,] [G,,G,]2 [G,B,D] | z3 .D3 | D,2 D, z B,D, |[M:5/8] G,2 B,, C,2 | %5
[M:1/8] E, |[M:3/4] G,2 [G,,G,] [G,,G,]2[K:treble] [G,B,D] | z2 z D z2[K:bass] | D,2 .D,2 B,[D,D] | %9
[M:5/8] [D,D]2 [D,C][K:treble] [G,B,D]2 |[M:1/8] [G,DG] |[M:3/4] [G,B,G]2 [G,CG] [G,B,G]2 [G,DG] | %12
 [D,C]2 [D,D] [G,B,D]2 [G,C] | [G,B,]2[K:treble] [G,B,D] [G,DG]2 [G,B,G] | %14
[M:5/8] [F,D]2 [G,DG][K:bass] [D,D]2 |[M:1/8] [D,D] | %16
[M:3/4][K:treble] [G,DG]2 [G,CD] [G,B,D]2 [G,=F] |[M:7/8][K:bass] [C,G,]2 [C,G,] [C,G,C]3 [C,G,C] | %18
[M:3/4] [D,G,B,]2 [D,B,D][D,D] [D,B,][D,D] |[M:5/8] [D,C]2 [G,B,D] [G,B,D]2 |] %20
V:3
 x6 | x6 | [G,DG]2 [G,DG] [G,G]-[G,CG]G, | z3 .D,3 |[M:5/8] x5 |[M:1/8] x |[M:3/4] x5[K:treble] x | %7
 [G,DG]2 [G,DG][G,G]- [G,CG][K:bass]G, | z2 z .D,3 |[M:5/8] x3[K:treble] x2 |[M:1/8] x | %11
[M:3/4] x6 | x6 | x2[K:treble] x4 |[M:5/8] x3[K:bass] x2 |[M:1/8] x |[M:3/4][K:treble] x6 | %17
[M:7/8][K:bass] x7 |[M:3/4] x6 |[M:5/8] x5 |] %20
V:4
 x6 | x6 | x6 | x6 |[M:5/8] x5 |[M:1/8] x |[M:3/4] x6 | x6 | x6 |[M:5/8] x5 |[M:1/8] x | %11
[M:3/4] x6 | x6 | x6 |[M:5/8] A2 z z2 |[M:1/8] x |[M:3/4] x6 |[M:7/8] x7 |[M:3/4] x6 |[M:5/8] x5 |] %20

